X:19
T:Violet's Fancie
C:James Blackcloak
P:16 times through
L:1/8
M:6/8
K:D dorian
c |: "Am"A>Bc "Dm"BcA | "E"^GAB E2B | "C"c>de "Dm"dec | "G"Bcd "Am"e3
"C"e>fg "B(dim)"fed | "Am"c>de "G"dcB | "F"ABc "Dm"d2f | [1-15 "C" e3 "Dm"d2c :| [16 "C" e3 ("Dm" d3 | Hd6) |]

